X:126
T:We All Believe in One True God
%%stretchlast false
M:none
L:1/4
K:Ab clef=C1
"^ii"[B,B]2 "^♯iii"[B,DBd] "^iii"[CDBe] | "^IV"[DFAf] "^v¹"[A,Ae] "^ii"[B,Ff] "^iii7³"[B,EBc] | "^IV¹"[F,DAd] "^♯iii"[E,DBd]/ [E,EBd]/ "^ii"[B,FBc] "^v"[F,_GAe] | "^♯vi"[_G,DFd]/ [_G,EFd]/ "^vi"[F,Fc] "^ii"[B,FB] "^VI"[B,CF=A] | "^♯iii"[B,DBd]2 "^ii"[F,Bcf]2 | "^v"[E,Bef] "^vi"[F,Acf] "^iii7"[CGcb] "^♯iii"[DAa] | "^Imaj7"[A,Ecg] "^vi¹"[A,Fcf] "^♯iii"[D,Eda] [D,Ada] | "^ii7"[B,Adf] "^vi"[FAcf] "^♯iii"[Dd] "^vii°¹"[B,Bdg] | "^♯i"[=A,Aca] "^♯vii"[B,ABf] "^ii"[B,DBf] "^VI"[F,F=Ac] | "^VI+"[F,F=Ad] "^ii"[B,Fd] "^vi¹"[A,Fc] "^ii+"[_G,FBc] | "^♯iii"[E,DB] "^vi"[F,FAc]/ "^♯vi°"[_G,FAc]/ "^♯iii"[A,ABd] "^v²"[B,F_Ge] | "^vi+"[F,Fd] "^iii"[B,EFc] "^ii"[B,DFB] "^♯i"[B,C=Ad] | "^♯iii"[B,DBd] [DEBe] [EFeb] [A,Feb] | "^viiø7²"[DGfb] "^V"[EGeb] "^vi"[F,Acc'] "^ii"[B,Fdb] | "^♭VII¹"[B,_Gdc'] "^iimaj7"[B,Fd=a] "^ii"[B,Fdb] "^v"[A,Feb] | [EFeb] "^ii"[Fcb] "^♯iii"[DAdc'] "^vii°¹"[B,Bdg] | "^♯i"[=A,Aca] "^♯vii"[B,ABf] "^ii"[B,DBf] "^VI"[F,F=Ac] | "^VI+"[F,F=Ad] "^IV"[D,FAd] "^vi¹"[A,Fc] "^vi+"[DFcd] | "^ii"[B,Fdf] "^vi7"[F,Ace] "^vi²"[CAcf] "^vii°²"[DABg]/ [DBg]/ | "^iii+"[CAca] "^iii"[F,Ecg] "^vi"[F,Fcf] "^III"[CGe=e] | "^vi7²"[CAef] "^♯vii"[B,Af] "^vii"[B,cfg]/ "^vi"[Ccfg]/ "^♯iii°"[Dcdg]/ "^♯iii"[Dcda]/ | [A,cdb] "^ii²"[F,cdb] "^♯vii"[A,Af] "^v"[B,FAe] | [B,GAf] "^I"[A,EAc] "^♯iii"[A,DAd] [E,DBd] | "^vi7"[F,EAc] "^I"[A,EAc] "^ii"[B,F] "^vi"[F,F_Ge] | "^vi+"[D,Fd] "^ii"[B,EFd]/ [B,EFc]/ "^v7"[E,D_GB] "^v°7"[E,C_G=A] | "^♯iii"[B,DB] "^IVmaj7²"[A,Fcd] "^♯iii"[DEBd] [B,EBd] | "^IVmaj7²"[A,Fcd] "^I¹"[CAe] "^IV"[DAdf] "^iii+²"[A,Bcg] | "^v"[B,EBa] "^VI"[F,E=Aa]/ [F,E=Ag]/ "^♯vii"[B,FAf] [A,Af]/ "^v¹"[A,Ae]/ | "^♭VIImaj7"[_G,FBd] "^iii"[E,FBc] "^ii7²"[F,DAB] "^I"[A,EAc] | "^v7"[E,_GBd] "^vi"[F,F_Ge] "^ii"[B,Fd] "^iii"[B,EFc] | "^v"[B,EFB] "^VI"[B,CF=A] "^II¹"[=DB]4 |]
